X:1
T:James Gibb editions
T:Hark! hark, my soul - Barnby
%%score [ ( 1 2 ) ( 3 4 ) ]
L:1/8
Q:1/4=104
M:4/4
K:Ab
V:1 treble nm="Midi_74"
V:2 treble 
V:3 bass nm="Midi_74"
V:4 bass 
V:1
"^Frederick William Faber\n(1814-63)""^Hark! hark, my soul""^Joseph Barnby\n(1838-96)" c4 G2 A2 | %1
w: |
 F6 F2 | A2 G2 F2 G2 | F4 E2"^Pilgrims (11 10. 11 10. 9 11)" z2 || F4 G2 A2 | G2 c2 B2 G2 | F4 A4 | %7
w: ||||||
 (G4 F2 E2) ||[M:4/4] c4 G2 A2 | F6 F2 | A2 G2 F2 G2 | B4 A2 z2 || c4 B2 A2 | G2 E2 G2 c2 | %14
w: |||||||
 =d6 d2 | c8 ||"^Refrain" c4 A2 B2 | c4 c4 | c4 A2 B2 | c8 || A4 e2 e2 | (d2 c2) B2 A2 | %22
w: ||An- gels of|Je- sus,|an- gels of|light,|Sing- ing to|wel\- * come the|
 G2 F2 E2 B2 | A8 || A4 A4 |] %25
w: pil- grims of the|night!|A- men|
V:2
 C4 C2 C2 | D4 D4 | D2 D2 D2 D2 | D4 C2 z2 || C4 E2 E2 | E2 E2 E2 E2 | E6 =D2 | %7
 (E4 !courtesy!_D4) ||[M:4/4] C4 C2 C2 | D4 D4 | D2 D2 D2 D2 | D4 C2 z2 || C4 =D2 D2 | %13
 E2 E2 E2 E2 | F4 F4 | E8 || E4 E2 E2 | E4 E4 | =E4 F2 =D2 | =E8 || C4 _G2 G2 | (F2 E2) =D2 D2 | %22
 E2 B,2 B,2 !courtesy!_D2 | C8 || F4 E4 |] %25
V:3
 E,4 E,2 E,2 | F,4 F,4 | E,2 B,2 A,2 B,2 | G,4 A,2 z2 || C4 B,2 A,2 | B,2 G,2 G,2 B,2 | %6
 (A,2 G,2) F,4 | (G,4 A,2 B,2) ||[M:4/4] A,4 E,2 E,2 | F,4 F,4 | E,2 B,2 A,2 B,2 | G,4 A,2 z2 || %12
 A,4 B,2 C2 | C2 C2 C2 C2 | C4 =B,4 | C8 || %16
"^1 Hark! hark, my soul! angelic songs are swelling\nO’er earth’s green fields and ocean’s wave-beat shore;\nHow sweet the truth those blessed strains are telling\nOf that new life when sin shall be no more!\n\nR: Angels of Jesus, angels of light,\nSinging to welcome the pilgrims of the night!\n\n2 Onward we go, for still we hear them singing,\n'Come, weary souls, for Jesus bids you come;'\nAnd through the dark, its echoes sweetly ringing,\nThe music of the Gospel leads us home. R:" C4 E2 D2 | %17
 C4 C4 | G,4 A,2 F,2 | G,8 || %20
 A,4 A,2"^3 Far, far away, like bells at evening pealing,\nThe voice of Jesus sounds oer land and sea,\nAnd laden souls, by thousands, meekly stealing,\nKind Shepherd, turn their weary steps to thee. R:\n\n4 Rest comes at length; though life be long and dreary,\nThe day must dawn, and darksome night be past;\nFaiths journeys end in welcome to the weary,\nAnd heaven, the hearts true home, will come at last. R:\n\n5 Angels, sing on, your faithful watches keeping,\nSing us sweet fragments of the songs above,\nTill mornings joy shall end the night of weeping,\nAnd lifes long shadows break in cloudless love. R:\n" A,2 | %21
 A,4 A,2 B,2 | B,2 A,2 G,2 G,2 | A,8 || A,4 C4 |] %25
V:4
 A,,4 A,,2 A,,2 | A,,4 A,,4 | E,2 E,2 E,2 E,2 | A,,4 A,,2 z2 || A,,4 B,,2 C,2 | %5
 B,,2 B,,2 B,,2 B,,2 | B,,4 B,,4 | (E,4 F,2 G,2) ||[M:4/4] A,4 A,,2 A,,2 | A,,4 A,,4 | %10
 E,2 E,2 E,2 E,2 | =E,4 F,2 z2 || F,4 F,2 F,2 | G,2 G,2 E,2 C,2 | G,4 G,,4 | C,8 || A,4 C2 B,2 | %17
 A,4 A,4 | C,4 F,2 F,2 | C,8 || F,4 C,2 C,2 | (D,2 E,2) F,2 B,,2 | E,2 E,2 E,2 E,2 | A,,8 || %24
 D,4 A,,4 |] %25

